X:3764
M:2/4
R:R
T:Long Journey Home
T:Randy Howard fiddle break on JD Crowe "Flashback"
O:england
C:Trad.
K:A
z2(3[EA][EA][EA] [E2A][F2A]        | {^D}[E4A] - [E2A]{F}[E2A]         |
\
{^F}[A4A] [AA][FA][E2A]            | [e4a] - [e2a][c2e]                |
\
[A4c] - [A4c]                      | [e4a] - [e2a][c2e]                |
[A4c] - [A2c][E2B]                 | [=F3=c][EB] FEDB,                 |
\
A,3=C B,G,^CB,                     | A,CA,B, CEFD                      |
\
EGBF GABA                          | "/"e2a2 - a=ga=c'                 |
a=ged AcA2                         | [a2c'][a2c'] [e2a][e2a]           |
\
[B2=g][B2=g] [e2=g][d2g]           | [=c2g][Ae][Gd] [EB][=Gd][EB][DA]  |
\
[EB]"\"[^D^A][=D=A][=CE]           | [CE][EA][CE][=CE] [A,2E]"/"[C2E]  |
\
[CE][EA][FA][EA] [Ac][G=c][A2^c] ||
